assets/icons/bowtie/1.22/uE621-comment-previous.svg

<svg xmlns="http://www.w3.org/2000/svg" viewBox="0 0 448 448" enable-background="new 0 0 448 448"><path d="M224 128h-160.971l51.882 51.882-22.626 22.628-90.511-90.51 90.51-90.51 22.627 22.628-51.882 51.882h160.971v32zm64-32v32h128v192h-166.141l-57.859 52.063v-52.063h-64v-64h-32v96h64v91.938l102.141-91.938h185.859v-256h-160z"/></svg>

<svg xmlns="http://www.w3.org/2000/svg" viewBox="0 0 448 448"><path d="M224 128H63.03l51.88 51.882-22.625 22.628L1.775 112l90.51-90.51 22.626 22.628L63.03 96H224v32zm64-32v32h128v192H249.86L192 372.063V320h-64v-64H96v96h64v91.938L262.14 352H448V96H288z"/></svg>
